X:8627
T:Kings Bridge Assembly,2nd part. JNu.30
M:6/8
Q:120
S:James Nuttall MS,c1830,Rossendale,East Lancs.
R:Jig
O:England
A:East Lancashire
Z:Chris Partington
K:D
"secundo"d2cd2c|F2FF2F|G2G FED|C2CC2z|!
d2Ad2A|F2FF2F|GFE DEC|D2FF3::!
F2FF2F|DFAG2G|Gcd cAF|F2DD2D|!
fdA GBd|ecB AGc|GFE DEC|D2[A,F][A,3F3]:|]
